X:76
T:We'll Ranzo Way
M:C|
L:1/8
Q:1/4=120
K:Eb
z2(B,2 C2)D2|\
E2EC B,2C>D|(EG)(BG)(FD)B,F/G/|A2GF G2FE|F2B2 B,2(GA)|
B2(BG) A2AF|(EF)(EC)(B,C)DB,|E2E2 (FG)(AF)|G2F2 E4||
